X:7838
T:Venezuela
O:england
S:Digital Tradition, venzuela
M:3/4
L:1/8
Q:1/4=100
W:I met her in Venezuela
W:With a basket on her head.
W:If she loved others she did not say
W:But I knew she'd do tp pass away
W:To pass away the time in Venezuela.
W:To pass away the time in Venezuela.
W:
W:I bought her a beautiful sash, a sash of blue
W:A beautiful sash of blue.
W:Because I knew that she would do
W:With all the tricks I knew she new
W:To pass away the time in Venezuela.
W:To pass away the time in Venezuela.
W:
W:An when the ship, the ship put out to sea
W:The ship put out to see.
W:And she was taking leave of me
W:I said, "Cheer up. There'll always be
W:Sailors ashore on leave in Venezuela.
W:Sailors ashore on leave in Venezuela."
W:
W:Her lingo was strange, but the thought of her beautiful smile,
W:The thought of her beautiful smile.
W:Will haunt me and taunt me for many a mile
W:For she was my girl and she did for a while
W:To pass away the time in Venezuela,
W:To pass away the time in Venezuela.
K:C
E2 |A2 B2 c2|B2 c2 d2|e3-f- e2-|d2- c2- B2|A6-|A2 z2 AB|\
c3-d c2|B2- c2 B2|A6-|A2 z2 E2|
A2 A2 A2|B2 B4|c2 c2 c2|d4 cd|\
e3-f e2|d3-e d2|c3-d c2|B4 E2|
A2- B2 c2|B2- c2 d2|e3-f e2|(3d-e-d c2 B2|A6|A2 z2 A2|
A2- c2 e2|a3-g f2|e3-f e2|d3c d2|\
e3-f- e2-|(3d-e-d- c2- B2|A6-|A2 z2 ||


